public/socials/white_telegram.svg

<svg width="42" height="42" viewBox="0 0 42 42" fill="none" xmlns="http://www.w3.org/2000/svg">
<g clip-path="url(#clip0_629_220)">
<path d="M42 21C42 26.5695 39.7875 31.911 35.8492 35.8492C31.911 39.7875 26.5695 42 21 42C15.4305 42 10.089 39.7875 6.15076 35.8492C2.21249 31.911 0 26.5695 0 21C0 15.4305 2.21249 10.089 6.15076 6.15076C10.089 2.21249 15.4305 0 21 0C26.5695 0 31.911 2.21249 35.8492 6.15076C39.7875 10.089 42 15.4305 42 21ZM21.7534 15.5033C19.7111 16.3538 15.6266 18.1125 9.50513 20.7795C8.51288 21.1733 7.9905 21.5618 7.94325 21.9397C7.8645 22.5776 8.66512 22.8296 9.7545 23.1735L10.2139 23.3179C11.2849 23.667 12.7286 24.0739 13.4767 24.0896C14.1592 24.1054 14.9179 23.8271 15.7552 23.2496C21.4751 19.3883 24.4283 17.4379 24.612 17.3959C24.7433 17.3644 24.927 17.3276 25.0477 17.4379C25.1711 17.5455 25.158 17.7529 25.1449 17.808C25.0661 18.1466 21.924 21.0656 20.2991 22.5776C19.7925 23.0501 19.4329 23.3835 19.3594 23.4596C19.1975 23.625 19.033 23.7878 18.8659 23.9479C17.8684 24.9086 17.1229 25.6279 18.9053 26.8039C19.7636 27.3709 20.4514 27.8355 21.1365 28.3027C21.882 28.812 22.6275 29.3186 23.5935 29.9539C23.8376 30.1114 24.0739 30.282 24.3023 30.4447C25.1711 31.0642 25.956 31.6208 26.9194 31.5315C27.4811 31.479 28.0613 30.954 28.3552 29.379C29.0509 25.6594 30.4185 17.6033 30.7335 14.2826C30.7527 14.0066 30.7413 13.7293 30.6994 13.4557C30.6747 13.235 30.5678 13.0317 30.4001 12.8861C30.1613 12.7212 29.8765 12.6358 29.5864 12.642C28.7989 12.6551 27.5835 13.0778 21.7534 15.5033Z" fill="white"/>
</g>
<defs>
<clipPath id="clip0_629_220">
<rect width="42" height="42" fill="white"/>
</clipPath>
</defs>
</svg>

<svg width="42" height="42" fill="none" xmlns="http://www.w3.org/2000/svg"><g clip-path="url(#a)"><path d="M42 21a21 21 0 1 1-42 0 21 21 0 0 1 42 0zm-20.247-5.497c-2.042.85-6.126 2.61-12.248 5.276-.992.394-1.515.783-1.562 1.16-.079.639.722.89 1.812 1.235l.459.144c1.07.349 2.515.756 3.263.772.682.015 1.44-.263 2.278-.84 5.72-3.862 8.673-5.812 8.857-5.854.131-.032.315-.068.436.042.123.108.11.315.097.37-.079.339-3.221 3.258-4.846 4.77-.506.472-.866.806-.94.882a21.64 21.64 0 0 1-.493.488c-.998.96-1.743 1.68.04 2.856.858.567 1.545 1.032 2.23 1.499.746.509 1.492 1.016 2.457 1.65.245.158.48.329.71.492.868.62 1.653 1.176 2.616 1.087.562-.053 1.142-.578 1.436-2.153.696-3.72 2.064-11.776 2.378-15.096.02-.276.008-.554-.034-.827a.885.885 0 0 0-.299-.57 1.38 1.38 0 0 0-.814-.244c-.787.013-2.002.436-7.833 2.861z" fill="#fff"/></g><defs><clipPath id="a"><path fill="#fff" d="M0 0h42v42H0z"/></clipPath></defs></svg>
